X: 34
T: Pollonesse #34
M: 3/4
L: 1/16
K: C
Q:120
GABc B4A4|GBdg d4c4|B2d2 d2c2 c2B2|B2AG AGAB A4|
GABc B4A4|GBdg d4c4|B2Bd c2cA d2B2|BAGA G4G,4:|
DFAB c2c2 c2c2|BGBc d2d2d4|g2gf g2a2 b2d2|edcB B4A4:|

